X:105 
T:Johnny Mickey's Slide 
B:CRE3.043 (SleamhnÃÂÃÂÃÂÃÂ¥n SheÃÂÃÂÃÂÃÂ¡inÃÂÃÂÃÂÃÂ­n MhicÃÂÃÂÃÂÃÂ­)
F:file ID: cre.3/105johnny_m
R:slide
Q:180
M:12/8
L:1/8
K:D
E|FGF F2E D3 D2E|FGF F2D E3 E2F|
GFG B2A FGF A2F|1 EDE F2E D3 D2:|
[2 EDE F2E D3 D3|: Bcd A2F A3 A3|
Bcd A2F G3 G2E|GFG B2G FEF A2F|
EDE F2E D3 D3:|

%%%

